public/assets/icons/phoneWhite.svg

<svg width="22" height="22" viewBox="0 0 22 22" fill="none" xmlns="http://www.w3.org/2000/svg">
<path d="M17.0968 10.2868C17.1259 10.4746 17.2285 10.6431 17.382 10.7553C17.5354 10.8675 17.7271 10.9141 17.9149 10.8849C18.1027 10.8558 18.2712 10.7532 18.3834 10.5997C18.4956 10.4463 18.5422 10.2546 18.513 10.0668C18.3462 8.39089 17.6 6.8257 16.403 5.64097C15.2059 4.45624 13.6331 3.72621 11.9556 3.5767C11.8588 3.56824 11.7613 3.57952 11.669 3.60985C11.5767 3.64018 11.4916 3.68893 11.4187 3.75314C11.3458 3.81736 11.2867 3.8957 11.2449 3.98343C11.2032 4.07116 11.1797 4.16644 11.1759 4.26352C11.1721 4.36059 11.188 4.45742 11.2227 4.54816C11.2574 4.63889 11.3102 4.72164 11.3778 4.79139C11.4454 4.86113 11.5265 4.91642 11.6161 4.95391C11.7058 4.99139 11.8021 5.01029 11.8992 5.00947C11.9432 5.01222 16.3226 5.24322 17.0968 10.2854V10.2868ZM18.6959 3.4447C13.8187 -1.43387 9.36642 0.278029 9.18079 0.353655C9.01286 0.430236 8.88088 0.568564 8.81227 0.739908C8.74366 0.911252 8.74369 1.10244 8.81236 1.27376C8.88103 1.44508 9.01306 1.58336 9.18102 1.65988C9.34898 1.73641 9.53996 1.74528 9.7143 1.68467C9.75142 1.66955 13.4681 0.242279 17.6825 4.45946C21.5656 8.34389 20.4257 12.2874 20.3776 12.4511C20.3343 12.6282 20.3601 12.8151 20.4497 12.9739C20.5393 13.1328 20.6859 13.2515 20.8599 13.3061C21.0339 13.3607 21.2221 13.3471 21.3863 13.2679C21.5506 13.1888 21.6786 13.0501 21.7443 12.8801C21.8062 12.6807 23.2156 7.96576 18.6959 3.4447ZM17.0184 20.3382C16.9496 20.4069 16.7255 20.5678 16.1178 20.5678C14.1487 20.5678 10.3743 18.9109 6.74013 15.2754C1.97019 10.4999 0.886675 5.78498 1.68281 4.98884C2.19707 4.47184 3.26821 3.39932 4.2816 3.39932C4.84123 3.39932 5.37336 3.72245 5.90412 4.38659C7.43727 6.29786 6.77313 6.95237 5.67312 8.03864L5.46961 8.24076C5.19461 8.51577 5.04748 8.88015 5.04748 9.29265C5.04748 9.95266 5.36511 11.1448 8.11652 13.8976C10.8693 16.6504 12.0615 16.968 12.7187 16.968C13.1312 16.968 13.4928 16.8236 13.7679 16.5486L13.97 16.3451C14.5681 15.7374 15.0851 15.2135 15.7383 15.2135C16.2456 15.2135 16.8795 15.516 17.622 16.1127C18.2532 16.6215 18.5749 17.1275 18.6024 17.6583C18.6602 18.6978 17.5519 19.806 17.0184 20.3396V20.3382ZM15.7396 13.7793C14.4856 13.7793 13.6702 14.6071 12.9497 15.3372L12.7187 15.5339C12.4987 15.5339 11.5898 15.3427 9.12991 12.8828C6.26025 10.0118 6.483 9.25553 6.483 9.25553L6.67963 9.0589C7.81265 7.94101 9.36367 6.40924 7.02338 3.4887C6.21212 2.47806 5.29086 1.96518 4.2816 1.96518C2.67557 1.96518 1.36931 3.27145 0.669422 3.97271C-1.40273 6.04898 1.63056 12.1871 5.72812 16.2901C9.6703 20.2364 13.7857 22.002 16.1178 22.002C16.9579 22.002 17.6028 21.782 18.0318 21.3529C18.711 20.6737 20.1246 19.2588 20.0338 17.5813C19.9829 16.6325 19.4728 15.7621 18.5185 14.9949C17.501 14.1767 16.5908 13.7793 15.7383 13.7793H15.7396Z" fill="white"/>
</svg>

<svg xmlns="http://www.w3.org/2000/svg" width="22" height="22" fill="none"><path fill="#fff" d="M17.097 10.287a.716.716 0 1 0 1.416-.22 7.235 7.235 0 0 0-6.557-6.49.718.718 0 1 0-.057 1.432c.044.003 4.424.234 5.198 5.276zm1.599-6.842C13.819-1.434 9.366.278 9.18.354a.718.718 0 0 0 .533 1.33c.037-.014 3.754-1.442 7.969 2.775 3.883 3.885 2.743 7.828 2.695 7.992a.717.717 0 0 0 1.366.43c.062-.2 1.472-4.915-3.048-9.436m-1.678 16.893c-.068.069-.293.23-.9.23-1.97 0-5.744-1.657-9.378-5.293C1.97 10.5.887 5.785 1.683 4.99c.514-.517 1.585-1.59 2.599-1.59.56 0 1.091.323 1.622.988 1.533 1.91.87 2.565-.23 3.652l-.204.202c-.275.275-.423.64-.423 1.052 0 .66.318 1.852 3.07 4.605 2.752 2.752 3.944 3.07 4.602 3.07.412 0 .774-.144 1.049-.42l.202-.203c.598-.608 1.115-1.131 1.768-1.131.508 0 1.142.302 1.884.899.631.509.953 1.015.98 1.545.058 1.04-1.05 2.148-1.584 2.682zM15.74 13.78c-1.254 0-2.07.828-2.79 1.558l-.231.197c-.22 0-1.13-.191-3.59-2.651-2.869-2.871-2.646-3.627-2.646-3.627l.197-.197c1.133-1.118 2.684-2.65.343-5.57-.81-1.01-1.732-1.524-2.741-1.524-1.606 0-2.913 1.306-3.613 2.008-2.072 2.076.962 8.214 5.06 12.317 3.941 3.946 8.057 5.712 10.389 5.712.84 0 1.485-.22 1.914-.65.679-.678 2.093-2.093 2.002-3.77-.051-.95-.561-1.82-1.515-2.587-1.018-.818-1.928-1.216-2.78-1.216"/></svg>
